X:209
T: HEILE HEILE SAEJE
N: K3026
O: Europa, Mitteleuropa, Deutschland; Frankreich, Unter - Elsass
R: Kinder - Lied, Heil - Spruch
M: 2/4
L: 1/8
K: G
 | dede | d2B2 |
dede | d2B2 |
dedd | g2z2 |
dedc | B2z2

@@@ Tune index: 7546
